X: 21649
T: Killeigh, The
R: hornpipe
M: 4/4
K: Gmajor
|:(3DEF|G2 A>G d>GB>d|~g2 e>g d>GB>d|e>GB>d B>AG>B|(3ABA (3GFE D2 (3DEF|
G2 A>G d>GB>d|~g2 e>g d>GB>d|e>GB>d B>AG>E|G2 G>B G2:|
|:B>c|d>GB>d e>GB>d|g2 b>g d>GB>d|c>ec>A B>dB>G|(3ABA (3GFE D2 D>B|
d>GB>d e>GB>d|g2 b>g d>GB>d|E>GB>d B>AG>E|G2 G>B G2:|

